!!!OTL: Lang zai gaoshan han yi sheng
!!!ARE: Asia, China,ˇHunan, Changning
!! I, 560
!!!SCT: C1475
!!!YEM: Copyright 1995, estate of Helmut Schaffrath.
**kern
*ICvox
*Ivox
*M4/4
*k[f#c#g#]
*A:
{8bb
8eee
8eee
8bb
4eee
4eee
=1
16eee
16ccc#
8bb
8aa
8bb
[2aa
=2
2.aa]
8bb
8r}
=3
{8bb
8eee
8eee
8bb
4aa
4bb
=4
8.fff#
16eee
8ddd#
[8eee
2eee_
=5
1eee]}
=6
{8bb
8eee
4bb
4aa
4ee
=7
2.aa
4r}
=8
{4aa
4bb
4eee
8eee
8eee
=9
8bb
8eee
4bb
16eee
16ccc#
8bb
[4aa
=10
2.aa]
8bb
8r}
=11
{4aa
4bb
4eee
8eee
8bb
=12
8.ff#
16eee
8ddd#
[8eee
2eee_
=13
1eee]}
=14
{8bb
8eee
4bb
4aa
4ee
=15
1aa}
==
!!!AGN: Shange. NannÅ qing
!!!ONB: ESAC (Essen Associative Code) Database: HUANG
!!!AMT: simple quadruple
!!!AIN: vox
!!!EED: Helmut Schaffrath
!!!EEV: 1.0
*-
!!!ONB: Tied note syntax fixed by Craig Sapp, 2004/05/03/
